crates/headshot-capture/tests/data/lut/contrast3.cube
# hand-written test fixture: per-channel x² sampled at 0 / 0.5 / 1
# (values 0 / 0.25 / 1), red-fastest row order. Not derived from any
# vendor LUT.
TITLE "contrast 3"
LUT_3D_SIZE 3
DOMAIN_MIN 0.0 0.0 0.0
DOMAIN_MAX 1.0 1.0 1.0
0 0 0
0.25 0 0
1 0 0
0 0.25 0
0.25 0.25 0
1 0.25 0
0 1 0
0.25 1 0
1 1 0
0 0 0.25
0.25 0 0.25
1 0 0.25
0 0.25 0.25
0.25 0.25 0.25
1 0.25 0.25
0 1 0.25
0.25 1 0.25
1 1 0.25
0 0 1
0.25 0 1
1 0 1
0 0.25 1
0.25 0.25 1
1 0.25 1
0 1 1
0.25 1 1
1 1 1
